brandFactory_export/2.Regular/Llave_2Regular.svg

<?xml version="1.0" encoding="UTF-8"?>
<svg width="24px" height="24px" viewBox="0 0 24 24" version="1.1" xmlns="http://www.w3.org/2000/svg" xmlns:xlink="http://www.w3.org/1999/xlink">
    <title>2.Regular/Llave_2Regular</title>
    <g id="Symbols" stroke="none" stroke-width="1" fill="none" fill-rule="evenodd">
        <g id="2.Regular/Llave_2Regular" fill="#5CB615" fill-rule="nonzero">
            <path d="M4.63529412,12.6268908 C5.18655462,12.6268908 5.35798319,12.4621849 5.35798319,11.9243697 C5.35798319,11.3831933 5.18991597,11.2184874 4.63529412,11.2184874 C4.08067227,11.2184874 3.91260504,11.3831933 3.91260504,11.9243697 C3.91260504,12.4588235 4.08403361,12.6268908 4.63529412,12.6268908 Z M4.63529412,9.77983193 C6.00672269,9.77983193 6.82689076,10.5798319 6.82689076,11.9210084 C6.82689076,13.2420168 5.98655462,14.0621849 4.63529412,14.0621849 C3.28067227,14.0621849 2.44033613,13.2420168 2.44033613,11.9210084 C2.44369748,10.5798319 3.26386555,9.77983193 4.63529412,9.77983193 L4.63529412,9.77983193 Z M20.6521008,12.9932773 L21.8487395,11.8806723 L20.3092437,10.4789916 L8.96806723,10.4789916 C8.6789916,10.4789916 8.41344538,10.3109244 8.29579832,10.0521008 C7.80168067,8.96302521 6.74621849,8.43529412 5.07563025,8.43529412 C2.64201681,8.43529412 1.50588235,9.54117647 1.50588235,11.9210084 C1.50588235,14.297479 2.64201681,15.4067227 5.07563025,15.4067227 C6.65546218,15.4067227 7.68403361,14.9663866 8.13109244,14.0957983 C8.17815126,14.005042 8.28571429,13.7361345 8.28571429,13.7327731 C8.39663866,13.4571429 8.66890756,13.2789916 8.96806723,13.2789916 L14.3731092,13.2789916 L15.4756303,11.7294118 C15.610084,11.5411765 15.8285714,11.4268908 16.0605042,11.4201681 C16.2789916,11.4134454 16.5176471,11.5176471 16.6621849,11.6991597 L17.4823529,12.7378151 L18.107563,11.7563025 C18.2252101,11.5714286 18.4268908,11.4470588 18.6487395,11.4235294 C18.8705882,11.4 19.092437,11.4739496 19.2504202,11.6285714 L20.6521008,12.9932773 L20.6521008,12.9932773 Z M23.4218487,11.3495798 C23.5697479,11.4840336 23.6537815,11.6722689 23.6571429,11.8705882 C23.6571429,12.0689076 23.5731092,12.2571429 23.4285714,12.394958 L21.1462185,14.5159664 C20.8571429,14.7848739 20.4,14.7781513 20.1176471,14.502521 L18.8705882,13.2857143 L18.1747899,14.3747899 C18.0470588,14.5764706 17.8252101,14.7008403 17.5865546,14.7142857 C17.3378151,14.7344538 17.1159664,14.6235294 16.9680672,14.4352941 L16.1142857,13.3563025 L15.3647059,14.4084034 C15.2268908,14.6033613 15.0016807,14.7176471 14.7596639,14.7176471 L9.45546218,14.7176471 C9.45210084,14.7277311 9.44537815,14.7344538 9.44201681,14.7445378 C8.94789916,15.702521 7.79159664,16.8453782 5.07226891,16.8453782 C1.82184874,16.8453782 0.0302521008,15.097479 0.0302521008,11.9243697 C0.0302521008,8.7512605 1.82184874,7.00336134 5.07226891,7.00336134 C7.56302521,7.00336134 8.8,8.03529412 9.41176471,9.04705882 L20.594958,9.04705882 C20.7798319,9.04705882 20.9613445,9.11764706 21.0957983,9.23865546 L23.4218487,11.3495798 L23.4218487,11.3495798 Z" id="Llave_2Regular"></path>
        </g>
    </g>
</svg>

<svg width="24" height="24" viewBox="0 0 24 24" xmlns="http://www.w3.org/2000/svg"><path d="M4.635 12.627c.552 0 .723-.165.723-.703 0-.54-.168-.706-.723-.706-.554 0-.722.165-.722.706 0 .535.171.703.722.703zm0-2.847c1.372 0 2.192.8 2.192 2.141 0 1.321-.84 2.141-2.192 2.141-1.354 0-2.195-.82-2.195-2.141.004-1.341.824-2.141 2.195-2.141zm16.017 3.213l1.197-1.112-1.54-1.402H8.97a.74.74 0 01-.673-.427c-.494-1.089-1.55-1.617-3.22-1.617-2.434 0-3.57 1.106-3.57 3.486 0 2.376 1.136 3.486 3.57 3.486 1.58 0 2.608-.44 3.055-1.311.047-.091.155-.36.155-.363a.733.733 0 01.682-.454h5.405l1.103-1.55a.747.747 0 011.186-.03l.82 1.039.626-.982a.747.747 0 011.143-.128l1.401 1.365zm2.77-1.643a.719.719 0 01.235.52.726.726 0 01-.228.525l-2.283 2.121a.75.75 0 01-1.028-.013l-1.247-1.217-.696 1.089a.745.745 0 01-.588.34.706.706 0 01-.619-.28l-.854-1.079-.75 1.052a.738.738 0 01-.604.31H9.455c-.003.01-.01.016-.013.027-.494.958-1.65 2.1-4.37 2.1-3.25 0-5.042-1.748-5.042-4.92 0-3.174 1.792-4.922 5.042-4.922 2.491 0 3.728 1.032 4.34 2.044h11.183c.185 0 .366.07.5.192l2.327 2.11z" fill="#5CB615" fill-rule="nonzero"/></svg>
